icons/haxeml.svg

<svg width="16" height="16" viewBox="0 0 16 16" fill="none" xmlns="http://www.w3.org/2000/svg">
<path d="M5.2916 12.2506L3.74913 12.2506V10.7082L5.14275 8.3846L5.37426 7.9986L5.14255 7.61273L3.74913 5.29227V3.75011H5.29169L7.61367 5.14314L7.99952 5.37462L8.38537 5.14313L10.7073 3.75H12.2498V5.2924L10.8569 7.61368L10.6254 7.99947L10.8568 8.38532L12.2498 10.7082L12.2499 12.2504H10.7074L8.38552 10.8569L7.99956 10.6253L7.61361 10.8569L5.2916 12.2506Z" stroke="#E08628" stroke-width="1.5"/>
</svg>

<svg xmlns="http://www.w3.org/2000/svg" width="16" height="16" fill="none"><path stroke="#E08628" stroke-width="1.5" d="M5.292 12.25H3.749v-1.542l1.394-2.323.231-.386-.231-.386-1.394-2.32V3.75h1.543l2.322 1.393.386.232.385-.232 2.322-1.393h1.543v1.542l-1.393 2.322-.232.385.232.386 1.393 2.323v1.542h-1.543l-2.321-1.393L8 10.625l-.386.232-2.322 1.394Z"/></svg>
